static/characters/himawari/back-walking-1.svg

<svg xmlns="http://www.w3.org/2000/svg" width="160" height="182"><path fill="#3cb371" d="m63.17 21.08 5.08-17.2s11.33 12.87 11.42 12.79c.08-.09 16.16-11.09 16.25-11.17.08-.08-.67 11.83-.67 11.83s13.67-2.25 13.75-2.25c.08 0-3.83 8.67-3.83 8.67s13.25 1.42 13.16 1.42c-.08 0-6.33 9-6.33 9s15.12 3.91 15.12 3.83c0-.08-10.7 10.58-10.7 10.58l9.83 6.3L116 62.75s4.58 16.5 4.58 16.42c0-.09-15.16-8-15.16-8l-4.5 17.66-8.04-11.95-7.26 13.74-7.87-13.12-13.67 12.58-2.22-16.35-19.11 4.19L54 61.12l-16.25-5.24s13.5-10.3 13.75-10.38c.25-.08-14.12-9.62-14.12-9.62s16.37-1.42 16.62-1.5c.25-.09-5.38-16.38-5.38-16.63s14.55 3.33 14.55 3.33ZM38.25 35.5"/><path fill="none" stroke="green" d="m92.25 67.12 6.94 6.5 2.62-9.68L111.5 68l-3.88-9.25 11-2.81-11.56-8.5s9.5-7.25 9.56-7.38c.07-.12-11.62-1.87-11.5-2.5.13-.62 4.38-9.37 4.38-9.37s-12.81-.38-12.75-.38c.06 0 5.75-8.56 5.75-8.56S88.06 22.38 88 22.38c-.06 0 2.38-8.82 2.38-8.82l-11.32 8.38-8.75-7.63L69 26.56l-13.06-1.12 4.18 11.25L51 40s7.06 8.38 7.25 8.38c.19 0-8.94 6.68-8.94 6.68l9.81 4.25S53.81 71 53.88 70.94c.06-.06 11-2.06 11-2.06l1.68 11.93 12.25-10.06 7.44 11.44 6-15.07Z"/><path fill="green" d="M76.38 98.38c1.44 1.23 24.06 17.56 36.43-10.32-15.12-11.31-34.87 6.25-35.9 6.88-1.03.62-14.91-3.03-15.41-3.88-.5-.84-15.75-19.75-35.69-5.44 5 20.94 34.28 9.69 35.57 9.38 1.28-.31 13.55 2.14 15 3.38Z"/><path fill="#6b8e23" d="M71.08 101c-19.83-10.33 1.21-48.38 2.69-51.75 1.48-3.37 11.87-3.24 11.54-.19-.31 3-22.23 39.11-2.23 47.61s21.54 47.39 18.92 49.5c-2.63 2.1-12.58 2.45-12.88.58-.29-1.87 1.8-35.42-18.04-45.75Z"/></svg>

<?xml version="1.0" encoding="UTF-8" standalone="no"?>
<!DOCTYPE svg PUBLIC "-//W3C//DTD SVG 20010904//EN"
              "http://www.w3.org/TR/2001/REC-SVG-20010904/DTD/svg10.dtd">

<svg xmlns="http://www.w3.org/2000/svg"
     width="160" height="182">
  <path fill="mediumseagreen"
        d="M 63.17,21.08
           C 63.17,21.08 68.25,3.88 68.25,3.88
             68.25,3.88 79.58,16.75 79.67,16.67
             79.75,16.58 95.83,5.58 95.92,5.50
             96.00,5.42 95.25,17.33 95.25,17.33
             95.25,17.33 108.92,15.08 109.00,15.08
             109.08,15.08 105.17,23.75 105.17,23.75
             105.17,23.75 118.42,25.17 118.33,25.17
             118.25,25.17 112.00,34.17 112.00,34.17
             112.00,34.17 127.12,38.08 127.12,38.00
             127.12,37.92 116.42,48.58 116.42,48.58
             116.42,48.58 126.25,54.88 126.25,54.88
             126.25,54.88 116.00,62.75 116.00,62.75
             116.00,62.75 120.58,79.25 120.58,79.17
             120.58,79.08 105.42,71.17 105.42,71.17
             105.42,71.17 100.92,88.83 100.92,88.83
             100.92,88.83 92.88,76.88 92.88,76.88
             92.88,76.88 85.62,90.62 85.62,90.62
             85.62,90.62 77.75,77.50 77.75,77.50
             77.75,77.50 64.08,90.08 64.08,90.08
             64.08,90.08 61.86,73.73 61.86,73.73
             61.86,73.73 42.75,77.92 42.75,77.92
             42.75,77.92 54.00,61.12 54.00,61.12
             54.00,61.12 37.75,55.88 37.75,55.88
             37.75,55.88 51.25,45.58 51.50,45.50
             51.75,45.42 37.38,35.88 37.38,35.88
             37.38,35.88 53.75,34.46 54.00,34.38
             54.25,34.29 48.62,18.00 48.62,17.75
             48.62,17.50 63.17,21.08 63.17,21.08 Z
           M 38.25,35.50M 38.25,35.50" />
  <path fill="none" stroke="green" stroke-width="1"
        d="M 92.25,67.12
           C 92.25,67.12 99.19,73.62 99.19,73.62
             99.19,73.62 101.81,63.94 101.81,63.94
             101.81,63.94 111.50,68.00 111.50,68.00
             111.50,68.00 107.62,58.75 107.62,58.75
             107.62,58.75 118.62,55.94 118.62,55.94
             118.62,55.94 107.06,47.44 107.06,47.44
             107.06,47.44 116.56,40.19 116.62,40.06
             116.69,39.94 105.00,38.19 105.12,37.56
             105.25,36.94 109.50,28.19 109.50,28.19
             109.50,28.19 96.69,27.81 96.75,27.81
             96.81,27.81 102.50,19.25 102.50,19.25
             102.50,19.25 88.06,22.38 88.00,22.38
             87.94,22.38 90.38,13.56 90.38,13.56
             90.38,13.56 79.06,21.94 79.06,21.94
             79.06,21.94 70.31,14.31 70.31,14.31
             70.31,14.31 69.00,26.56 69.00,26.56
             69.00,26.56 55.94,25.44 55.94,25.44
             55.94,25.44 60.12,36.69 60.12,36.69
             60.12,36.69 51.00,40.00 51.00,40.00
             51.00,40.00 58.06,48.38 58.25,48.38
             58.44,48.38 49.31,55.06 49.31,55.06
             49.31,55.06 59.12,59.31 59.12,59.31
             59.12,59.31 53.81,71.00 53.88,70.94
             53.94,70.88 64.88,68.88 64.88,68.88
             64.88,68.88 66.56,80.81 66.56,80.81
             66.56,80.81 78.81,70.75 78.81,70.75
             78.81,70.75 86.25,82.19 86.25,82.19
             86.25,82.19 92.25,67.12 92.25,67.12 Z" />
  <path fill="green"
        d="M 76.38,98.38
           C 77.82,99.61 100.44,115.94 112.81,88.06
             97.69,76.75 77.94,94.31 76.91,94.94
             75.88,95.56 62.00,91.91 61.50,91.06
             61.00,90.22 45.75,71.31 25.81,85.62
             30.81,106.56 60.09,95.31 61.38,95.00
             62.66,94.69 74.93,97.14 76.38,98.38 Z" />
  <path fill="olivedrab"
        d="M 71.08,101.00
           C 51.25,90.67 72.29,52.62 73.77,49.25
             75.25,45.88 85.64,46.01 85.31,49.06
             85.00,52.06 63.08,88.17 83.08,96.67
             103.08,105.17 104.62,144.06 102.00,146.17
             99.37,148.27 89.42,148.62 89.12,146.75
             88.83,144.88 90.92,111.33 71.08,101.00 Z" />
</svg>
